polaris-icons/icons/newicons/RefreshMajor.svg

<svg width="20" height="20" viewBox="0 0 20 20" fill="none" xmlns="http://www.w3.org/2000/svg">
<path d="M3 9.25C3 9.66421 3.33579 10 3.75 10C4.16422 10 4.5 9.66421 4.5 9.25C4.5 7.59315 5.84315 6.25 7.5 6.25H15.066L13.9425 7.49828C13.6654 7.80616 13.6904 8.28038 13.9983 8.55747C14.3062 8.83456 14.7804 8.80961 15.0575 8.50172L17.3075 6.00172C17.5743 5.70523 17.5624 5.25173 17.2803 4.96967L15.0303 2.71967C14.7374 2.42678 14.2626 2.42678 13.9697 2.71967C13.6768 3.01256 13.6768 3.48744 13.9697 3.78033L14.9393 4.75H7.5C5.01472 4.75 3 6.76472 3 9.25Z" fill="black"/>
<path d="M17 10.75C17 10.3358 16.6642 10 16.25 10C15.8358 10 15.5 10.3358 15.5 10.75C15.5 12.4069 14.1569 13.75 12.5 13.75H4.93402L6.05747 12.5017C6.33457 12.1938 6.30961 11.7196 6.00172 11.4425C5.69384 11.1654 5.21962 11.1904 4.94253 11.4983L2.69253 13.9983C2.42568 14.2948 2.43761 14.7483 2.71967 15.0303L4.96967 17.2803C5.26257 17.5732 5.73744 17.5732 6.03033 17.2803C6.32322 16.9874 6.32322 16.5126 6.03033 16.2197L5.06066 15.25H12.5C14.9853 15.25 17 13.2353 17 10.75Z" fill="black"/>
</svg>

<svg viewBox="0 0 20 20" fill="none" xmlns="http://www.w3.org/2000/svg"><path d="M3 9.25a.75.75 0 0 0 1.5 0 3 3 0 0 1 3-3h7.566l-1.123 1.248a.75.75 0 1 0 1.114 1.004l2.25-2.5a.75.75 0 0 0-.027-1.032l-2.25-2.25a.75.75 0 1 0-1.06 1.06l.97.97h-7.44a4.5 4.5 0 0 0-4.5 4.5Z" fill="#5C5F62"/><path d="M17 10.75a.75.75 0 0 0-1.5 0 3 3 0 0 1-3 3h-7.566l1.123-1.248a.75.75 0 1 0-1.114-1.004l-2.25 2.5a.75.75 0 0 0 .027 1.032l2.25 2.25a.75.75 0 0 0 1.06-1.06l-.97-.97h7.44a4.5 4.5 0 0 0 4.5-4.5Z" fill="#5C5F62"/></svg>
